!!!OTL: 266. Der Vogel in der Luft.
!!!COM: A. Harder
!!!ODT: 1810 (um)
!!!ARE: Europa, Mitteleuropa, Deutschland
!!!SCT: B0266
!!!TXL: @@DE
!!!YEM: Copyright 1995, estate of Helmut Schaffrath.
**kern	**text
*ICvox	*
*Ivox	*
*clefG2	*
*M2/4	*
*k[f#c#g#]	*
*A:	*
!LO:TX:a:t=Lebhaft.	!
{16e	Jn
16e	dem
=1	=1
8a	gold-
16b/L	-nen
16g#J	.
8a	Strahl
16e	ü-
16e	-ber
=2	=2
8cc#	Berg
16ddL	und
16bJ	.
8cc#}	Thal
{16cc#	läßt
16cc#	du
=3	=3
16bL	luſ-
16eeJ	.
16dd#	-tig
16cc#	dein
16bL	Lied
16aJ	.
16g#L	er-
16f#J	.
=4	=4
4f#	-klin-
8e}	-gen;
{16e	ſchwe-
16e	-beſt
=5	=5
8.dd	hin
16cc#	und
8b	her
16e	in
16e	dem
=6	=6
8.cc#	blau-
16b	-en
8a}	Meer,
{16a	dir
16a	ʒu
=7	=7
8b	küh-
16b	-len
16b	die
16eL	luſ-
16f#J	.
16g#	-ti-
16e	-gen
=8	=8
(8a/L	Schwingen.
8cc#J)	.
8a}	.
{16e	ſchwe-
16e	-beſt
=9	=9
8.dd	hin
16cc#	und
8b	her
16e	in
16e	dem
=10	=10
8.cc#	blau-
16b	-en
8a}	Meer,
{16a	dir
16a	ʒu
=11	=11
8b	küh-
16b	-len
16b	die
16eL	luſ-
16f#J	.
16g#	-ti-
16e	-gen
=12	=12
(8a/L	Schwingen.
8cc#J)	.
8a}	.
==	==
!!!AGN: Stimmungs - Lied, Natur
!!!GTL: Trauerlieder (Elegien) und Stimmungslieder
!!!ONB: ESAC (Essen Associative Code) Database: BOEHME
!!!AMT: simple duple
!!!AIN: vox
!!!EED: Helmut Schaffrath
!!!EEV: 1.0
!!Auguſtin Harder. Um 1810.
!!@@COMMENT:"Gedicht von Ludwig Franʒ Deinhardſtein 1815. (Str. 3 v. Phil. Wackernagel 1822).
!!Text einer ältern Melodie untergelegt durch Erk."
!!@@END:
!!!Text: L. F. Deinhardstein
!!!URL-scan: https://archive.org/details/BoehmeVtLieder1895/page/n229/mode/2up
!!!ENC: Anna Maria Matuszewska
!!!EEV: 2024/03/07
*-	*-
